!!!COM: Paul Hindemith
!!!OTL: [T658_Hin-w77p35m62-70]
**kern	**kern	**dynam	**kern	**kern	**dynam
*	*grp:A	*	*grp:B	*grp:C	*
*part2	*part2	*part2	*part1	*part1	*part1
*staff4	*staff3	*	*staff2	*staff1	*
*I"Piano II	*	*	*I"Piano I	*	*
*I'Pno. II	*	*	*I'Pno. I	*	*
*ICklav	*ICklav	*	*ICklav	*ICklav	*
*Ipiano	*Ipiano	*	*Ipiano	*Ipiano	*
*clefF4	*clefG2	*	*clefF4	*clefG2	*
*k[]	*k[]	*	*k[]	*k[]	*
*C:	*C:	*	*C:	*C:	*
*M6/4	*M6/4	*	*M6/4	*M6/4	*
=1	=1	=1	=1	=1	=1
!	!	!	!	!LO:TX:t=[[half]=104]	!LO:DY:ed=brack
1.ryy	4r	.	2%3ryy	2ryy	4ryy
.	2a	4ryy	.	.	.
.	.	.	.	2ryy	.
.	4d	.	.	.	.
.	4e	.	.	4ryy	.
.	[4B	.	.	4ryy	.
=2	=2	=2	=2	=2	=2
1.ryy	4B]	.	2%3ryy	2ryy	.
.	(4g	.	.	.	.
.	4e	.	.	2ryy	.
.	4f#X	.	.	.	.
.	4g#X	.	.	4ryy	.
.	4a	.	.	4ryy	.
=3	=3	=3	=3	=3	=3
1.ryy	2d)	.	2%3ryy	2ryy	.
.	(4cc	.	.	2ryy	.
.	2dd)	.	.	.	.
.	.	.	.	4ryy	.
.	(4g	.	.	4ryy	.
=4	=4	=4	=4	=4	=4
1.ryy	4b-X	.	2%3ryy	2ryy	.
.	2cc)	.	.	.	.
.	.	.	.	2ryy	.
.	2f	.	.	.	.
.	.	.	.	2ryy	.
.	4e	.	.	.	.
=5	=5	=5	=5	=5	=5
1.ryy	(2a	.	2%3ryy	2ryy	.
.	4g)	.	.	2ryy	.
.	2c	.	.	.	.
.	.	.	.	2ryy	.
.	4B	.	.	.	.
=6	=6	=6	=6	=6	=6
1.ryy	2e	.	4ryy	1ryy	4ryy
.	.	.	2ryy	.	.
.	2c	.	.	.	.
.	.	.	4ryy	.	.
.	2a	.	4ryy	2ryy	.
.	.	.	4ryy	.	.
=7	=7	=7	=7	=7	=7
1.ryy	2f#X	.	4ryy	1ryy	.
.	.	.	4ryy	.	.
.	2e	.	4ryy	.	.
.	.	.	4ryy	.	.
.	2b	.	4ryy	2ryy	.
.	.	.	4ryy	.	.
=8	=8	=8	=8	=8	=8
1.ryy	2a	.	2ryy	1ryy	.
.	2d	.	4ryy	.	.
.	.	.	2ryy	.	.
.	2cc	.	.	2ryy	.
.	.	.	4ryy	.	.
=9	=9	=9	=9	=9	=9
1.ryy	2b-X	4ryy	4ryy	2.ryy	4ryy
.	.	.	2ryy	.	.
.	2a	.	.	.	.
.	.	.	2ryy	4ryy	.
.	2een	.	.	2ryy	.
.	.	4ryy	4ryy	.	4ryy
=	=	=	=	=	=
*-	*-	*-	*-	*-	*-
!!!system-decoration: [({(s1,s2)})][({(s3,s4)})]
